material/.icons/material/map-marker-alert-outline.svg

<svg xmlns="http://www.w3.org/2000/svg" viewBox="0 0 24 24"><path d="M12 2a7 7 0 017 7c0 5.25-7 13-7 13S5 14.25 5 9a7 7 0 017-7m0 2a5 5 0 00-5 5c0 1 0 3 5 9.71C17 12 17 10 17 9a5 5 0 00-5-5m-1 2h2v5h-2V6m0 7h2v2h-2v-2z"/></svg>

<?xml version="1.0" encoding="UTF-8"?><!DOCTYPE svg PUBLIC "-//W3C//DTD SVG 1.1//EN" "http://www.w3.org/Graphics/SVG/1.1/DTD/svg11.dtd"><svg xmlns="http://www.w3.org/2000/svg" xmlns:xlink="http://www.w3.org/1999/xlink" version="1.1" id="mdi-map-marker-alert-outline" width="24" height="24" viewBox="0 0 24 24"><path d="M12,2A7,7 0 0,1 19,9C19,14.25 12,22 12,22C12,22 5,14.25 5,9A7,7 0 0,1 12,2M12,4A5,5 0 0,0 7,9C7,10 7,12 12,18.71C17,12 17,10 17,9A5,5 0 0,0 12,4M11,6H13V11H11V6M11,13H13V15H11V13Z" /></svg>
